X:24
T:Lady Harriot Hay's Strathspey
S:Petrie's Second Collection of Strathspey Reels and Country Dances &c.
Z:Steve Wyrick <sjwyrick'at'gmail'dot'com>, 6/5/04
N:Petrie's Second Collection, page 8
% Gore's Index gives earliest publication as James Aird's
% "Selection of Scotch, English, Irish and Foreign Airs" v4 ca 1790
L:1/8
M:C
R:Strathspey
K:Bb
F|B<B TB2 B>df<d|B<B TB2 A/B/c/B/ AF|B<B TB2 B>df<d|e<gd<f      Tc>BA::a|
  bBdB    fBdB  |bBdB    A/B/c/B/ AF|bBdB    fBdB  |(3ege (3dfd Tc>BA:||
